X: 10251
Q: "Andante"
M: C
L: 1/16
K: D
!f!A2G2 |\
!f!ag |\
f2a2 d2fg agfg a4 | g2b2 e2ga baga b3a/g/ | f2a2 d2fg agfg a3f/d/ | A3df3d Te4 {de}d2a/g/ |
f2a2 d2fg agfg a4 | g2b2 e2ga baga b3a/g/ | fa3ef3 d3c/B/ B2b2 | a2{ba^ga}Hd'z A>df>d e4 {de}Hd2 |]


